src/components/00-materials/images-raw/Private Mansion.svg

<svg width="96" height="96" viewBox="0 0 96 96" fill="none" xmlns="http://www.w3.org/2000/svg">
<path d="M37.25 41.29V40.79H36.75H28.92H28.42V41.29V57.77V58.27H28.92H36.75H37.25V57.77V41.29ZM52.55 41.29V40.79H52.05H44.22H43.72V41.29V57.77V58.27H44.22H52.05H52.55V57.77V41.29ZM67.89 41.29V40.79H67.39H59.55H59.05V41.29V57.77V58.27H59.55H67.39H67.89V57.77V41.29ZM27.42 59.27V39.79H38.25V59.27H27.42ZM42.72 59.27V39.79H53.55V59.27H42.72ZM58.05 59.27V39.79H68.89V59.27H58.05Z" stroke="#00008F"/>
<path d="M48.9909 11.6481C48.932 11.6198 48.8716 11.5954 48.81 11.5751V11.4597L48.3199 11.45C48.0982 11.4455 47.8783 11.4903 47.676 11.5811C47.476 11.6709 47.2981 11.8033 47.1549 11.9692C47.0889 12.0419 47.0156 12.1076 46.9362 12.1653L46.9362 12.1653L46.9318 12.1685L19.0218 32.8985L17.8082 33.7999H19.32H20.16C20.5578 33.7999 20.9393 33.9579 21.2206 34.2392C21.5019 34.5205 21.66 34.902 21.66 35.2999V84.0499V84.5499H22.16H74.11H74.61V84.0499V35.2999C74.61 34.902 74.768 34.5205 75.0493 34.2392C75.3306 33.9579 75.7122 33.7999 76.11 33.7999H76.71H78.2017L77.0113 32.9009L49.8013 12.3509L49.8014 12.3508L49.7921 12.3441C49.696 12.2749 49.6106 12.192 49.5386 12.098C49.3946 11.9065 49.2068 11.7522 48.9909 11.6481ZM47.2454 10.6738C47.4263 10.5915 47.6159 10.5314 47.81 10.4943V10.5067L48.3168 10.4998C48.6996 10.4946 49.0787 10.5753 49.4262 10.7361C49.7737 10.8968 50.0807 11.1334 50.3246 11.4284L50.3617 11.4733L50.4081 11.5085L78.8733 33.0642C78.9542 33.2265 78.9975 33.4054 78.9994 33.5875C79.0016 33.7995 78.9476 34.0083 78.8428 34.1926C78.7381 34.3769 78.5864 34.5302 78.4032 34.6369C78.2201 34.7435 78.0119 34.7998 77.8 34.7999C77.7999 34.7999 77.7999 34.7999 77.7998 34.7999H76.11H75.61V35.2999V84.3881C75.6078 84.7047 75.4806 85.0077 75.256 85.2309C75.0312 85.4544 74.727 85.5799 74.41 85.5799H21.9029C21.7266 85.5774 21.5529 85.5373 21.3934 85.4624C21.2329 85.387 21.0904 85.2781 20.9756 85.1431C20.8608 85.008 20.7763 84.8498 20.7278 84.6793C20.6792 84.5088 20.6679 84.3299 20.6944 84.1546L20.7 84.1174V84.0799V35.2999V34.7999H20.2H18.2001C18.2001 34.7999 18.2 34.7999 18.2 34.7999C17.988 34.7998 17.7799 34.7435 17.5967 34.6369C17.4135 34.5302 17.2618 34.3769 17.1571 34.1926C17.0524 34.0083 16.9984 33.7995 17.0006 33.5875C17.0024 33.4061 17.0454 33.228 17.1257 33.0662L46.2981 11.4013L46.3433 11.3677L46.38 11.3248C46.6174 11.0472 46.9128 10.825 47.2454 10.6738Z" stroke="#00008F"/>
<path d="M54.4399 84.5001H54.9399V84.0001V72.2301C54.9399 68.0746 51.9431 64.5801 48.1299 64.5801C44.3273 64.5801 41.3199 68.0741 41.3199 72.2301V84.0001V84.5001H41.8199H54.4399ZM40.3199 72.2301C40.3199 67.4293 43.8707 63.5801 48.1299 63.5801C52.3978 63.5801 55.9399 67.4578 55.9399 72.2301V85.5001H40.3199V72.2301Z" stroke="#00008F"/>
</svg>

<svg width="96" height="96" viewBox="0 0 96 96" fill="none" xmlns="http://www.w3.org/2000/svg"><path d="M37.25 41.29v-.5h-8.83v17.48h8.83V41.29zm15.3 0v-.5h-8.83v17.48h8.83V41.29zm15.34 0v-.5h-8.84v17.48h8.84V41.29zM27.42 59.27V39.79h10.83v19.48H27.42zm15.3 0V39.79h10.83v19.48H42.72zm15.33 0V39.79h10.84v19.48H58.05z" stroke="#00008F"/><path d="M48.99 11.648a1.506 1.506 0 00-.18-.073v-.115l-.49-.01a1.498 1.498 0 00-1.165.52c-.066.072-.14.138-.219.195h0l-.004.004-27.91 20.73-1.214.9h2.352a1.5 1.5 0 011.5 1.5v49.25h52.95V35.3a1.5 1.5 0 011.5-1.5h2.092l-1.19-.898-27.21-20.55h0l-.01-.007a1.21 1.21 0 01-.253-.246 1.5 1.5 0 00-.548-.45zm-1.745-.974c.181-.082.37-.143.565-.18v.013l.507-.007a2.559 2.559 0 012.008.928l.037.045.046.035 28.465 21.556A1.201 1.201 0 0177.8 34.8s0 0 0 0h-2.19v49.588a1.2 1.2 0 01-1.2 1.192H21.903a1.24 1.24 0 01-1.209-1.425l.006-.038V34.8h-2.5s0 0 0 0a1.2 1.2 0 01-1.074-1.734l29.172-21.665.045-.033.037-.043a2.5 2.5 0 01.865-.651z" stroke="#00008F"/><path d="M54.44 84.5h.5V72.23c0-4.155-2.997-7.65-6.81-7.65-3.803 0-6.81 3.494-6.81 7.65V84.5h13.12zM40.32 72.23c0-4.8 3.55-8.65 7.81-8.65 4.268 0 7.81 3.878 7.81 8.65V85.5H40.32V72.23z" stroke="#00008F"/></svg>
